src/public/img/icons/alternate-btn.svg

<svg width="20" height="20" viewBox="0 0 20 20" fill="none" xmlns="http://www.w3.org/2000/svg">
<path d="M9.37435 3.95834L7.29102 5.83334L9.37435 7.70834" stroke="#111A2C" stroke-width="1.5" stroke-linecap="round" stroke-linejoin="round"/>
<path d="M10.625 16.0417L12.7083 14.1667L10.625 12.2917" stroke="#111A2C" stroke-width="1.5" stroke-linecap="round" stroke-linejoin="round"/>
<path d="M8.125 5.83334H11.0417C13.8031 5.83334 16.0417 8.07192 16.0417 10.8333V11.0417" stroke="#111A2C" stroke-width="1.5" stroke-linecap="round" stroke-linejoin="round"/>
<path d="M11.8757 14.1667H8.95898C6.19756 14.1667 3.95898 11.9281 3.95898 9.16668V8.95834" stroke="#111A2C" stroke-width="1.5" stroke-linecap="round" stroke-linejoin="round"/>
</svg>

<svg xmlns="http://www.w3.org/2000/svg" width="20" height="20" fill="none">
  <path stroke="#111A2C" stroke-linecap="round" stroke-linejoin="round" stroke-width="1.5" d="M9.374 3.958 7.291 5.833l2.083 1.875m1.251 8.334 2.083-1.875-2.083-1.875"/>
  <path stroke="#111A2C" stroke-linecap="round" stroke-linejoin="round" stroke-width="1.5" d="M8.125 5.833h2.917a5 5 0 0 1 5 5v.209m-4.166 3.125H8.959a5 5 0 0 1-5-5v-.209"/>
</svg>
